X:110
T:110 Tibbie Fowler
C:Welch MS
N:STB has comment under B music "perhaps C should be sharpened".
N:Presumably referring to 1st bar of B music only. I prefer it natural
I:abc2nwc
M:C
L:1/8
K:G
A/2A3/2 A3/2B/2 F3/2G/2 A3/2d/2|e/2A3/2 A3/2B/2 G3/2E/2 D3/2D/2|A/2A3/2 A3/2B/2 G3/2A/2 Bd|e/2A3/2 A3/2B/2 GE EE||
fe ec d3/2e/2 dB|ge eg a3/2b/2 ge|d3/2e/2 ga e/2g3/2 dB|cA AB GE EE|]

